resources/haticons/SVG/no_meeting_room.svg

<!-- Generated by IcoMoon.io -->
<svg version="1.1" xmlns="http://www.w3.org/2000/svg" width="24" height="24" viewBox="0 0 24 24">
<title>no_meeting_room</title>
<path d="M14.016 11.484l-8.484-8.484h8.484v0.984h4.969v12.516l-1.969-2.016v-8.484h-3v5.484zM11.016 11.016h-1.031v1.969h2.016v-0.984l9.75 9.75-1.313 1.266-6.422-6.469v4.453h-11.016v-2.016h2.016v-11.438l-4.031-3.984 1.266-1.313z"></path>
</svg>

<svg xmlns="http://www.w3.org/2000/svg" width="24" height="24"><path d="M14.016 11.484L5.532 3h8.484v.984h4.969V16.5l-1.969-2.016V6h-3v5.484zm-3-.468H9.985v1.969h2.016v-.984l9.75 9.75-1.313 1.266-6.422-6.469v4.453H3v-2.016h2.016V7.547L.985 3.563 2.251 2.25z"/></svg>
